dist/img/sprites/icon_metr.svg

<svg width="25" height="25" viewBox="0 0 25 25" fill="none" xmlns="http://www.w3.org/2000/svg">
<path d="M24.1639 3.25399H3.85745C3.77979 3.2539 3.70287 3.26913 3.6311 3.29881C3.55933 3.32849 3.49412 3.37204 3.4392 3.42695C3.38428 3.48187 3.34073 3.54708 3.31105 3.61885C3.28137 3.69062 3.26614 3.76754 3.26623 3.84521V24.4091C3.26617 24.4868 3.28142 24.5637 3.31111 24.6354C3.34081 24.7071 3.38436 24.7723 3.43927 24.8272C3.49419 24.8821 3.55939 24.9256 3.63115 24.9553C3.70291 24.985 3.77981 25.0002 3.85745 25.0001H19.5783C19.6559 25.0001 19.7328 24.9849 19.8045 24.9552C19.8762 24.9255 19.9414 24.882 19.9963 24.8271C20.0512 24.7722 20.0947 24.7071 20.1244 24.6353C20.154 24.5636 20.1693 24.4867 20.1692 24.4091V19.1594H24.164C24.2416 19.1595 24.3185 19.1443 24.3902 19.1146C24.462 19.0849 24.5271 19.0414 24.582 18.9865C24.6369 18.9316 24.6804 18.8664 24.7101 18.7947C24.7398 18.723 24.755 18.6461 24.755 18.5685V3.84521C24.7551 3.76756 24.7398 3.69066 24.7102 3.61891C24.6805 3.54715 24.637 3.48195 24.5821 3.42703C24.5272 3.37211 24.462 3.32856 24.3903 3.29887C24.3186 3.26918 24.2417 3.25393 24.164 3.25399H24.1639ZM23.5727 17.9773H19.5782C19.5006 17.9772 19.4237 17.9925 19.3519 18.0221C19.2802 18.0518 19.215 18.0954 19.1601 18.1503C19.1052 18.2052 19.0617 18.2704 19.032 18.3422C19.0024 18.4139 18.9872 18.4908 18.9873 18.5685V23.8179H4.44833V4.43616H23.5727V17.9773ZM1.84417 4.33193C2.11211 4.33193 2.33089 4.11281 2.33089 3.84521C2.33089 3.57734 2.11211 3.35849 1.84417 3.35849H0.498896C0.231228 3.35842 0.0121765 3.57734 0.0121765 3.84521C0.0121765 4.11281 0.231228 4.33193 0.498896 4.33193H0.679787V23.9224H0.498896C0.231228 23.9224 0.0121765 24.1412 0.0121765 24.4091C0.0121765 24.6767 0.231228 24.8958 0.498896 24.8958H1.84417C2.11211 24.8958 2.33089 24.6767 2.33089 24.4091C2.33089 24.1412 2.11211 23.9224 1.84417 23.9224H1.64949V4.33193H1.84417ZM3.85738 2.31898C4.12499 2.31898 4.3441 2.09993 4.3441 1.83199V1.63732H23.6006V1.83199C23.6006 2.09993 23.8197 2.31898 24.0873 2.31898C24.3552 2.31898 24.574 2.09993 24.574 1.83199V0.48672C24.574 0.219119 24.3552 0 24.0873 0C23.8197 0 23.6006 0.219119 23.6006 0.48672V0.66761H4.3441V0.48672C4.3441 0.219119 4.12499 0 3.85738 0C3.58944 0 3.37039 0.219119 3.37039 0.48672V1.83199C3.37029 1.89597 3.38281 1.95935 3.40724 2.01848C3.43168 2.07761 3.46755 2.13134 3.51279 2.17658C3.55803 2.22183 3.61176 2.25769 3.67089 2.28213C3.73003 2.30657 3.7934 2.31909 3.85738 2.31898Z" fill="#23272B"/>
<path d="M9.72212 16.9969V13.27C10.0874 12.8111 10.4592 12.5748 10.8208 12.5748C11.0467 12.5748 11.1998 12.6374 11.2868 12.7661C11.3562 12.8668 11.4361 13.0894 11.4361 13.562V16.9969H12.6771V13.27C13.0458 12.8077 13.4177 12.5748 13.783 12.5748C14.0052 12.5748 14.1548 12.6374 14.2418 12.7661C14.3113 12.8668 14.3912 13.0894 14.3912 13.562V16.9969H15.636V13.5274C15.636 11.8482 14.7007 11.4972 13.9116 11.4972C13.6612 11.4972 13.4074 11.5561 13.1501 11.6709C12.9344 11.7683 12.6947 11.9629 12.4201 12.2619C12.1523 11.7542 11.6621 11.4972 10.9563 11.4972C10.5115 11.4972 10.0977 11.664 9.71866 11.9977V11.6118H8.47415V17.0005H9.72212V16.9969ZM17.7218 10.0264H16.3765C16.4529 9.95344 16.5605 9.85606 16.7136 9.72746C17.103 9.40411 17.3568 9.15369 17.4923 8.96594C17.6382 8.76088 17.7149 8.52458 17.7149 8.25698C17.7149 7.95773 17.6107 7.70419 17.4088 7.50232C17.2072 7.30078 16.9221 7.19995 16.5606 7.19995C16.2234 7.19995 15.9418 7.29732 15.7298 7.49193C15.5176 7.68667 15.3959 7.94741 15.368 8.2673L15.3542 8.45511H16.1227L16.133 8.29514C16.1433 8.14555 16.1887 8.03786 16.2651 7.96839C16.3452 7.89886 16.4388 7.86383 16.5536 7.86383C16.6892 7.86383 16.7865 7.89513 16.8526 7.9612C16.9186 8.02754 16.9499 8.12117 16.9499 8.24638C16.9499 8.40283 16.9048 8.53497 16.8109 8.66011C16.7032 8.79911 16.4945 8.99724 16.1887 9.24067C15.8547 9.50834 15.6288 9.73092 15.5004 9.92213C15.3612 10.1237 15.2916 10.3428 15.2916 10.5688V10.7425H17.7218L17.7218 10.0264Z" fill="#23272B"/>
</svg>

<svg width="25" height="25" viewBox="0 0 25 25" fill="none" xmlns="http://www.w3.org/2000/svg"><path d="M24.164 3.254H3.857a.59.59 0 00-.59.591V24.41a.59.59 0 00.59.591h15.721a.591.591 0 00.591-.59v-5.25h3.995a.59.59 0 00.591-.591V3.845a.592.592 0 00-.591-.591zm-.591 14.723h-3.995a.592.592 0 00-.59.591v5.25H4.447V4.436h19.125v13.541zM1.844 4.332a.488.488 0 000-.973H.5a.488.488 0 00-.487.486c0 .268.22.487.487.487h.18v19.59H.5a.488.488 0 00-.487.487c0 .268.22.487.487.487h1.345a.488.488 0 000-.973H1.65V4.331h.195zm2.013-2.013a.488.488 0 00.487-.487v-.195h19.257v.195c0 .268.219.487.486.487a.488.488 0 00.487-.487V.487A.488.488 0 0024.087 0a.488.488 0 00-.486.487v.18H4.344v-.18A.488.488 0 003.857 0a.488.488 0 00-.487.487v1.345a.486.486 0 00.487.487z" fill="#23272B"/><path d="M9.722 16.997V13.27c.365-.459.737-.695 1.099-.695.226 0 .379.062.466.191.07.1.15.323.15.796v3.435h1.24V13.27c.369-.462.74-.695 1.106-.695.222 0 .372.062.459.191.07.1.15.323.15.796v3.435h1.244v-3.47c0-1.679-.935-2.03-1.724-2.03-.25 0-.505.06-.762.174-.216.097-.455.292-.73.59-.268-.507-.758-.764-1.464-.764-.444 0-.858.167-1.237.5v-.385H8.474V17h1.248v-.003zm8-6.97h-1.346c.077-.074.184-.17.338-.3.389-.323.643-.573.778-.761.146-.205.223-.441.223-.709 0-.3-.104-.553-.306-.755-.202-.201-.487-.302-.848-.302-.338 0-.62.097-.831.292a1.15 1.15 0 00-.362.775l-.014.188h.769l.01-.16c.01-.15.056-.257.132-.327a.42.42 0 01.289-.104c.135 0 .233.031.299.097.066.067.097.16.097.285a.66.66 0 01-.14.414c-.107.14-.316.337-.621.58-.334.268-.56.49-.689.682-.139.202-.208.42-.208.647v.173h2.43v-.716z" fill="#23272B"/></svg>
